src/assets/create-load-status-3.svg

<svg width="331" height="18" fill="none" xmlns="http://www.w3.org/2000/svg"><path d="M3.132 13.192c-.344 0-.696-.072-1.056-.216a2.843 2.843 0 01-.984-.672 2.769 2.769 0 01-.624-1.164l.924-.384c.128.464.344.824.648 1.08a1.67 1.67 0 001.092.384c.304 0 .588-.064.852-.192a1.61 1.61 0 00.624-.552c.16-.24.24-.504.24-.792 0-.28-.08-.536-.24-.768a1.507 1.507 0 00-.636-.54 1.884 1.884 0 00-.876-.204h-.708v-.948h.636c.44 0 .808-.124 1.104-.372.296-.256.444-.592.444-1.008 0-.384-.144-.692-.432-.924-.288-.232-.644-.348-1.068-.348-.416 0-.744.108-.984.324-.232.216-.4.48-.504.792l-.936-.396c.144-.432.42-.82.828-1.164.416-.352.948-.528 1.596-.528.48 0 .912.096 1.296.288.384.192.684.46.9.804.224.344.336.728.336 1.152 0 .424-.108.784-.324 1.08a2.318 2.318 0 01-.804.696v.048c.408.168.744.428 1.008.78.264.344.396.752.396 1.224 0 .48-.124.912-.372 1.296-.24.384-.572.684-.996.9a2.95 2.95 0 01-1.38.324zm7.226-8.784h.948L7.742 13h-.948l3.564-8.592zm5.087 6.828h-3.936v-.768l3.84-5.676h1.104v5.484h1.056v.96h-1.056V13h-1.008v-1.764zm0-.96V6.28h-.048l-2.724 3.996h2.772z" fill="#9390A0"/><rect x="23" y="7" width="65" height="4" rx="2" fill="#07AFF0"/><rect x="104" y="7" width="65" height="4" rx="2" fill="#07AFF0"/><rect x="185" y="7" width="65" height="4" rx="2" fill="#07AFF0"/><rect x="266" y="7" width="65" height="4" rx="2" fill="#EFEFEF"/></svg>

<svg width="331" height="18" viewBox="0 0 331 18" fill="none" xmlns="http://www.w3.org/2000/svg">
<path d="M3.132 13.192C2.788 13.192 2.436 13.12 2.076 12.976C1.716 12.832 1.388 12.608 1.092 12.304C0.804 11.992 0.596 11.604 0.468 11.14L1.392 10.756C1.52 11.22 1.736 11.58 2.04 11.836C2.352 12.092 2.716 12.22 3.132 12.22C3.436 12.22 3.72 12.156 3.984 12.028C4.248 11.892 4.456 11.708 4.608 11.476C4.768 11.236 4.848 10.972 4.848 10.684C4.848 10.404 4.768 10.148 4.608 9.916C4.456 9.684 4.244 9.504 3.972 9.376C3.708 9.24 3.416 9.172 3.096 9.172H2.388V8.224H3.024C3.464 8.224 3.832 8.1 4.128 7.852C4.424 7.596 4.572 7.26 4.572 6.844C4.572 6.46 4.428 6.152 4.14 5.92C3.852 5.688 3.496 5.572 3.072 5.572C2.656 5.572 2.328 5.68 2.088 5.896C1.856 6.112 1.688 6.376 1.584 6.688L0.648 6.292C0.792 5.86 1.068 5.472 1.476 5.128C1.892 4.776 2.424 4.6 3.072 4.6C3.552 4.6 3.984 4.696 4.368 4.888C4.752 5.08 5.052 5.348 5.268 5.692C5.492 6.036 5.604 6.42 5.604 6.844C5.604 7.268 5.496 7.628 5.28 7.924C5.064 8.22 4.796 8.452 4.476 8.62V8.668C4.884 8.836 5.22 9.096 5.484 9.448C5.748 9.792 5.88 10.2 5.88 10.672C5.88 11.152 5.756 11.584 5.508 11.968C5.268 12.352 4.936 12.652 4.512 12.868C4.096 13.084 3.636 13.192 3.132 13.192ZM10.3579 4.408H11.3059L7.74188 13H6.79388L10.3579 4.408ZM15.4448 11.236H11.5088V10.468L15.3488 4.792H16.4528V10.276H17.5088V11.236H16.4528V13H15.4448V11.236ZM15.4448 10.276V6.28H15.3968L12.6728 10.276H15.4448Z" fill="#9390A0"/>
<rect x="23" y="7" width="65" height="4" rx="2" fill="#07AFF0"/>
<rect x="104" y="7" width="65" height="4" rx="2" fill="#07AFF0"/>
<rect x="185" y="7" width="65" height="4" rx="2" fill="#07AFF0"/>
<rect x="266" y="7" width="65" height="4" rx="2" fill="#EFEFEF"/>
</svg>
